cssgg/presentation.svg

<svg
  width="24"
  height="24"
  viewBox="0 0 24 24"
  fill="none"
  xmlns="http://www.w3.org/2000/svg"
>
  <path
    fill-rule="evenodd"
    clip-rule="evenodd"
    d="M12 22C17.5228 22 22 17.5228 22 12C22 6.47715 17.5228 2 12 2C6.47715 2 2 6.47715 2 12C2 17.5228 6.47715 22 12 22ZM20 12H18C18 8.68629 15.3137 6 12 6C8.68629 6 6 8.68629 6 12H4C4 7.58172 7.58172 4 12 4C16.4183 4 20 7.58172 20 12ZM4.25204 14H19.748C18.8599 17.4505 15.7277 20 12 20C8.27232 20 5.14012 17.4505 4.25204 14ZM8 12C8 9.79086 9.79086 8 12 8C14.2091 8 16 9.79086 16 12H8Z"
    fill="currentColor"
  />
</svg>

<svg viewBox="0 0 24 24" xmlns="http://www.w3.org/2000/svg"><path fill-rule="evenodd" d="M12 22c5.52 0 10-4.48 10-10 0-5.53-4.48-10-10-10C6.47 2 2 6.47 2 12c0 5.52 4.47 10 10 10Zm8-10h-2c0-3.32-2.69-6-6-6 -3.32 0-6 2.68-6 6H4c0-4.42 3.58-8 8-8 4.41 0 8 3.58 8 8ZM4.25 14h15.49c-.89 3.45-4.03 6-7.75 6 -3.73 0-6.86-2.55-7.75-6Zm3.74-2c0-2.21 1.79-4 4-4 2.2 0 4 1.79 4 4h-8Z"/></svg>
